X:828
M:C|
L:1/8
K:D Minor
E|Ddd^c d3e|edcd efga|~fde^c d2AF|GBAG FDD:|
E|F>GAc F/F/F A2|F>GAc ~BGGg|~fde^c d2AF|GBAG FDDE|

